dist/assets/img/star-f.svg

<svg width="17" height="17" viewBox="0 0 17 17" fill="none" xmlns="http://www.w3.org/2000/svg">
<path d="M10.8363 8.5L17 11.7873L15.8567 13.7597L9.64327 10.3315V17H7.35672L7.40643 10.3315L1.19298 13.7597L0 11.7873L6.21345 8.5L0 5.21271L1.19298 3.19337L7.40643 6.66851L7.35672 0H9.64327V6.66851L15.8567 3.19337L17 5.21271L10.8363 8.5Z" fill="white"/>
</svg>

<svg width="17" height="17" fill="none" xmlns="http://www.w3.org/2000/svg"><path d="M10.836 8.5L17 11.787l-1.143 1.973-6.214-3.428V17H7.357l.05-6.668-6.214 3.428L0 11.787 6.213 8.5 0 5.213l1.193-2.02L7.406 6.67 7.356 0h2.287v6.669l6.214-3.476L17 5.213 10.836 8.5z" fill="#fff"/></svg>7V6.66851L15.8567 3.19337L17 5.21271L10.8363 8.5Z" fill="white"/>
</svg>
